X:1
T:Doing Time
M:4/4
L:1/4
K:G
 D/2D/2| D D G A| B B2 A/2G/2| A3/2 G/2 E G| D3| D| D D G A| B B2 G|\
 A3/2 A/2 A B| A3| D/2D/2| D D G A| B B2 A/2G/2| A3/2 G/2 E G| D3|\
 D/2D/2| E F G A| B B G3/2- B/2| A3/2 G/2 F D| G3||
